storage/app/icons/phosphoricons/duotone/arrow-fat-left-duotone.svg

<svg xmlns="http://www.w3.org/2000/svg" fill="currentColor" viewBox="0 0 256 256"><path d="M216 88v80a8 8 0 0 1-8 8h-88v48l-96-96 96-96v48h88a8 8 0 0 1 8 8" opacity=".2"/><path d="M208 72h-80V32a8 8 0 0 0-13.66-5.66l-96 96a8 8 0 0 0 0 11.32l96 96A8 8 0 0 0 128 224v-40h80a16 16 0 0 0 16-16V88a16 16 0 0 0-16-16m0 96h-88a8 8 0 0 0-8 8v28.69L35.31 128 112 51.31V80a8 8 0 0 0 8 8h88Z"/></svg>

<svg xmlns="http://www.w3.org/2000/svg" viewBox="0 0 256 256" fill="currentColor"><path d="M216,88v80a8,8,0,0,1-8,8H120v48L24,128l96-96V80h88A8,8,0,0,1,216,88Z" opacity="0.2"/><path d="M208,72H128V32a8,8,0,0,0-13.66-5.66l-96,96a8,8,0,0,0,0,11.32l96,96A8,8,0,0,0,128,224V184h80a16,16,0,0,0,16-16V88A16,16,0,0,0,208,72Zm0,96H120a8,8,0,0,0-8,8v28.69L35.31,128,112,51.31V80a8,8,0,0,0,8,8h88Z"/></svg>
